usr/share/icons/biglinux-icons-material/symbolic/status/stopwatch-symbolic.svg

<svg width="16" height="16" version="1" xmlns="http://www.w3.org/2000/svg">
 <path d="m3.1797 0c-0.22066 9.4562e-6 -0.44221 0.084932-0.61133 0.25391l-2.3145 2.3105c-0.33826 0.33792-0.33827 0.88463 0 1.2227l1.4805 1.4785a7.5 7.5 0 0 0-0.73438 3.2344 7.5 7.5 0 0 0 7.5 7.5 7.5 7.5 0 0 0 7.5-7.5 7.5 7.5 0 0 0-7.5-7.5 7.5 7.5 0 0 0-0.037109 0 7.5 7.5 0 0 0-3.1934 0.73242l-1.4805-1.4785c-0.16912-0.16901-0.38872-0.25392-0.60938-0.25391zm-0.0019531 1.1328c0.049174 0 0.099324 0.019246 0.13672 0.056641l1.0508 1.0527a7.5 7.5 0 0 1 0.16602-0.10547 7.5 7.5 0 0 0-2.2871 2.2266l-1.0508-1.0527c-0.07479-0.07479-0.07479-0.19474 0-0.26953l1.8496-1.8516c0.037395-0.037395 0.085592-0.056641 0.13477-0.056641zm5.3223 0.86719a6.5 6.5 0 0 1 6.5 6.5 6.5 6.5 0 0 1-6.5 6.5 6.5 6.5 0 0 1-6.5-6.5 6.5 6.5 0 0 1 6.5-6.5zm2.0586 2.541c-0.19341-0.023419-0.39184 0.068725-0.49609 0.25l-1.291 2.2344a1.5 1.5 0 0 0-0.27148-0.025391 1.5 1.5 0 0 0-1.5 1.5 1.5 1.5 0 0 0 1.5 1.5 1.5 1.5 0 0 0 1.5-1.5 1.5 1.5 0 0 0-0.36133-0.97656l1.2891-2.2344c0.14-0.2418 0.05836-0.54725-0.18164-0.68555-0.05975-0.034475-0.12303-0.054694-0.1875-0.0625z" fill="#363636"/>
</svg>

<svg xmlns="http://www.w3.org/2000/svg" width="16" height="16" version="1"><path fill="#dedede" d="M3.18 0a.863.863 0 0 0-.612.254L.254 2.564a.863.863 0 0 0 0 1.223l1.48 1.479A7.5 7.5 0 0 0 1 8.5 7.5 7.5 0 0 0 8.5 16 7.5 7.5 0 0 0 16 8.5 7.5 7.5 0 0 0 8.5 1a7.5 7.5 0 0 0-.037 0 7.5 7.5 0 0 0-3.194.732L3.79.254A.859.859 0 0 0 3.179 0zm-.002 1.133c.049 0 .1.019.136.056l1.051 1.053a7.5 7.5 0 0 1 .166-.105 7.5 7.5 0 0 0-2.287 2.226l-1.05-1.052a.19.19 0 0 1 0-.27l1.849-1.852a.19.19 0 0 1 .135-.056zM8.5 2A6.5 6.5 0 0 1 15 8.5 6.5 6.5 0 0 1 8.5 15 6.5 6.5 0 0 1 2 8.5 6.5 6.5 0 0 1 8.5 2zm2.059 2.541a.503.503 0 0 0-.496.25L8.772 7.025A1.5 1.5 0 0 0 8.5 7 1.5 1.5 0 0 0 7 8.5 1.5 1.5 0 0 0 8.5 10 1.5 1.5 0 0 0 10 8.5a1.5 1.5 0 0 0-.361-.977l1.289-2.234a.5.5 0 0 0-.37-.748z"/></svg>
